X:1
T:S'io per te
T:S'io per te
T:Piero Benedetti
T:Source : Musische di P.Benedetti---Libro secondo---Venetia---R.Amadino---1613. Editor : André Vierendeels (29/05/15).
T:Notes : Original clefs : C1, F4 Editorial accidentals above the staff Figures in BC are notated in original print Composer called "Pietro" in this book. m7, last "do" dotted in original print m 10, 2nd "sol" notated as quarter in original print
C:Piero Benedetti
%%score 1 2
L:1/8
Q:1/4=80
M:4/4
K:F
V:1 treble nm="Soprano" snm="S"
V:2 bass nm="BC" snm="BC"
V:1
 G6 BB | d3 G G4- | ^G3 A =B2 c2 | ^G8 | e4 cB c>A | =B4 B4 | c/d/e =B/c/d G/A/B c/d/c | A8 | G8 | %9
w: S'io per te|vi- vo e|mo- * * *|ro,|Fil- li ne sol il|fa- i|e _ _ s'ia _ _ t'a- * * * * *|do-|ro,|
 d4 GABG | A4 A4 | z2 cc c2 B>A | A4 c2 de | F/G/A/B/ c/F/G/A/ B/c/d/e/ f2- | f_e/d/ c2 B4 | d8- | %16
w: E pur di que- sto|co- re,|ren- di dub- bia la|fe dub- bia l'ar-|do- * * * * * * * * * * * *|* * * * re,|ahi|
 d2 B4 G2 | Bc/d/ _e4 d>c | c4 c3 d | A4 z c f2- | f2 _e2 d4 | c4 z2 G2 | %22
w: _ Fil- li,|Ahi _ _ _ Fil- li|mi- a, non|piu, non piu|_ ti- mo-|re, ch'in|
 A2 =B/G/A/B/ c/A/B/c/ d2- |"^-natural" d2 d/c/B/A/ A4 |"^b" A4 z ABA | d8- |"^b" d3 B A4 | %27
w: que- sto _ _ _ pet- * * * to|_ _ _ _ _ mi-|o, al- ber- ghi|tu|_ non i-|
 G4 z2 D2 | E2 ^F/D/E/F/ G/E/F/G/ A2- | A2 A/G/F/E/ E4 | E4 z EFE | A8- | A3 F E4 | D4 z ABA | %34
w: o, ch'in|que- sto _ _ _ pet- * * * to|_ _ _ _ _ mi-|o, al- ber- ghi|tu|_ nin i-|o, al- ber- ghi|
 d8- | d3 B A4 | G8 |] %37
w: tu|_ non i-|o.|
V:2
 G,,8 | G,2 _E,2 =B,,2 C,2 |"^#" E,6 E,2 |"^4" E,8 | A,,8 | E,8 | C,2 G,2 E,4 |"^4""^#" D,4 D,4 | %8
 G,,8 | G,4 _E,4 |"^#" D,8 | E,4 F,4 | F,8 | F,8 |"^4          3" F,2 F,2 B,,4 | B,2 A,2 G,2 F,2 | %16
 _E,8 |"^3       4" _E,4 F,2 F,2 | F,8 | F,8 |"^#""^4""^#" G,2 G,4 G,2 | C,8 | F,2 G,2 A,2 ^F,2 | %23
"^#" =B,,4 D,4 |"^#" D,8 | z D, ^F,D, G,G,, =B,,G,, |"^#""^4""^#" D,2 D,4 D,2 | G,,8 | %28
 C,2 D,2 E,2 ^C,2 |"^#" ^F,,4 A,,4 |"^#" A,,8 | z A,, ^C,A,, D,D,, ^F,,D,, | %32
"^#""^4""^#" A,,2 A,,4 A,,2 | D,8 | z D, ^F,D, G,G,, =B,,G,, |"^#""^4""^#" D,2 D,4 D,2 | G,,8 |] %37

